.local/share/icons/Gruvbox-Plus-Dark/actions/16/osd-shutd-screen.svg

<svg xmlns="http://www.w3.org/2000/svg" width="16" height="16" version="1.1">
 <defs>
  <style id="current-color-scheme" type="text/css">
   .ColorScheme-Text { color:#555555; } .ColorScheme-Highlight { color:#4285f4; } .ColorScheme-NeutralText { color:#ff9800; } .ColorScheme-PositiveText { color:#4caf50; } .ColorScheme-NegativeText { color:#f44336; }
  </style>
 </defs>
 <path style="fill:currentColor" class="ColorScheme-Text" d="M 2 7 C 1.446 7 1 7.446 1 8 L 1 13 C 1 13.554 1.446 14 2 14 L 10 14 C 10.554 14 11 13.554 11 13 L 11 8 C 11 7.446 10.554 7 10 7 L 2 7 z M 9.5761719 8.734375 L 10.423828 9.265625 L 8.1640625 12.880859 L 5.7421875 11.429688 L 6.2578125 10.570312 L 7.8359375 11.519531 L 9.5761719 8.734375 z"/>
 <path style="fill:currentColor;opacity:0.35" class="ColorScheme-Text" d="M 6,2 C 5.446,2 5,2.446 5,3 v 3 h 5 c 1.090702,0 2,0.9092983 2,2 v 1 h 2 c 0.554,0 1,-0.446 1,-1 V 3 C 15,2.446 14.554,2 14,2 Z"/>
</svg>

<svg width="16" height="16" version="1.1" xmlns="http://www.w3.org/2000/svg">
  <defs>
    <style id="current-color-scheme" type="text/css">.ColorScheme-Text { color:#ebdbb2; } .ColorScheme-Highlight { color:#458588; }</style>
  </defs>
  <path class="ColorScheme-Text" d="m2 7c-0.554 0-1 0.446-1 1v5c0 0.554 0.446 1 1 1h8c0.554 0 1-0.446 1-1v-5c0-0.554-0.446-1-1-1zm7.199 2 0.8008 0.8008-3.199 3.199-2.4-2.4 0.7988-0.7988 1.602 1.6z" fill="currentColor"/>
  <path class="ColorScheme-Text" d="m6 2c-0.554 0-1 0.446-1 1v3h5.801c0.6648 0 1.199 0.5344 1.199 1.199v1.801h2c0.554 0 1-0.446 1-1v-5c0-0.554-0.446-1-1-1z" fill="currentColor" opacity=".3"/>
</svg>
